src/topics/icons/microsoft-windows.svg

<svg height="257" preserveAspectRatio="xMidYMid" viewBox="0 0 256 257" width="256" xmlns="http://www.w3.org/2000/svg"><path d="m0 36.3573818 104.619084-14.2480364.045733 100.9135746-104.56924768.595491zm104.569248 98.2927472.081204 101.001522-104.5692474-14.376732-.00586315-87.302277zm12.682282-114.4046784 138.716223-20.2454506v121.739477l-138.716223 1.101246zm138.74847 115.3545084-.03254 121.191273-138.716223-19.578225-.194363-101.839952z" fill="#00adef"/></svg>

<?xml version="1.0" encoding="UTF-8" standalone="no"?>
<svg width="256px" height="257px" viewBox="0 0 256 257" version="1.1" xmlns="http://www.w3.org/2000/svg" xmlns:xlink="http://www.w3.org/1999/xlink" preserveAspectRatio="xMidYMid">
    <g>
        <path d="M0,36.3573818 L104.619084,22.1093454 L104.664817,123.02292 L0.0955693151,123.618411 L0,36.3573818 Z M104.569248,134.650129 L104.650452,235.651651 L0.0812046021,221.274919 L0.0753414539,133.972642 L104.569248,134.650129 Z M117.25153,20.2454506 L255.967753,6.21724894e-15 L255.967753,121.739477 L117.25153,122.840723 L117.25153,20.2454506 Z M256,135.599959 L255.96746,256.791232 L117.251237,237.213007 L117.056874,135.373055 L256,135.599959 Z" fill="#00ADEF"></path>
    </g>
</svg>
